assets/logo-ddex-grey.svg

<?xml version="1.0" encoding="UTF-8"?>
<svg width="141px" height="30px" viewBox="0 0 141 30" version="1.1" xmlns="http://www.w3.org/2000/svg" xmlns:xlink="http://www.w3.org/1999/xlink">
    <!-- Generator: Sketch 52.2 (67145) - http://www.bohemiancoding.com/sketch -->
    <title>Logo</title>
    <desc>Created with Sketch.</desc>
    <g id="Designs" stroke="none" stroke-width="1" fill="none" fill-rule="evenodd">
        <g id="Home" transform="translate(-890.000000, -4071.000000)" fill="#282138">
            <g id="JOIN-THE-WBTC-COMMUNITY" transform="translate(0.000000, 3815.000000)">
                <g id="SECTION---JOIN-THE-WBTC-COMMUNITY" transform="translate(130.000000, 85.000000)">
                    <g id="Logo-DDEX" transform="translate(720.000000, 136.000000)">
                        <g id="Logo" transform="translate(40.000000, 35.000000)">
                            <path d="M140.755923,29.6363182 C135.704344,30.5745 132.32357,28.1981364 129.533521,24.3481364 C128.239638,22.5626818 126.563305,21.0467727 124.83905,19.1676818 C122.517619,21.6854091 120.012334,23.9195 118.11805,26.5776818 C115.681883,29.9949545 112.528736,29.8217727 108.203354,29.2685909 C112.74254,24.2654091 116.879923,19.7054091 121.071677,15.0845 C116.892364,10.4781364 112.784472,5.95040909 108.300119,1.00859091 C112.281756,0.599045455 115.438128,-0.0818636364 117.904246,3.33540909 C119.835854,6.01131818 122.332383,8.29177273 124.796658,10.9872273 C127.21255,8.37722727 129.653325,6.00722727 131.762795,3.37813636 C133.425766,1.30540909 135.275815,0.306318182 137.952972,0.674045455 C138.859334,0.798590909 139.82007,0.538590909 140.755923,0.4545 L140.755923,1.99040909 C136.69457,6.30677273 132.633217,10.6231364 128.420726,15.1004091 C132.689432,19.5990455 136.722677,23.8499545 140.755923,28.1004091 L140.755923,29.6363182 Z" id="Fill-1"></path>
                            <path d="M42.0207647,24.0046364 C45.9116275,24.0046364 49.6048137,24.0100909 53.298,24.0005455 C54.0725784,23.9982727 54.8577549,24.0096364 55.6217353,23.8996364 C60.053098,23.2596364 63.3504706,19.6846364 63.4983824,15.4055455 C63.648598,11.0741818 60.7161667,6.98872727 56.246098,6.52190909 C51.5944804,6.03645455 46.8502451,6.41372727 42.0207647,6.41372727 L42.0207647,24.0046364 Z M36.3526569,15.0523636 C36.3526569,11.1346364 36.4471176,7.21327273 36.313951,3.29963636 C36.2439118,1.23009091 37.0751667,0.644636364 39.046402,0.678272727 C44.3117843,0.767363636 49.5817745,0.618272727 54.8462353,0.731909091 C62.5837255,0.899181818 68.6301373,6.69463636 69.0996765,14.2219091 C69.5650686,21.701 64.249,28.4628182 56.5663431,29.2032727 C50.4913627,29.7887273 44.3265294,29.4805455 38.2008627,29.5282727 C36.5392745,29.5414545 36.3346863,28.3869091 36.3434412,27.0623636 C36.3701667,23.0587273 36.3531176,19.0555455 36.3526569,15.0523636 Z" id="Fill-7"></path>
                            <path d="M5.76772941,6.2585 L5.76772941,24.0048636 C6.81831765,24.0048636 7.67076863,24.0080455 8.52275882,24.0044091 C11.9777196,23.9885 15.4437392,24.1394091 18.8839549,23.9125909 C23.4600039,23.6107727 27.0002098,19.8948636 27.1734647,15.5739545 C27.3628471,10.8421364 24.2014059,6.75940909 19.3650137,6.34031818 C14.9285824,5.95531818 10.4308667,6.2585 5.76772941,6.2585 M0.0240529412,15.1407727 C0.0245137255,11.1375909 0.0747392157,7.1335 0.00101372549,3.13168182 C-0.0312411765,1.36940909 0.692190196,0.680772727 2.44777843,0.694863636 C7.88733725,0.738954545 13.3315039,0.5785 18.7655333,0.744409091 C26.6947098,0.985772727 32.750798,7.21759091 32.8056314,14.9403182 C32.8627686,22.9835 26.8002294,29.1825909 18.2784843,29.5071364 C13.0190922,29.7080455 7.74587647,29.5162273 2.47911176,29.5689545 C0.723984314,29.5862273 -0.0234078431,28.9112273 0.00423921569,27.1498636 C0.0673666667,23.1480455 0.0240529412,19.1439545 0.0240529412,15.1407727" id="Fill-9"></path>
                            <path d="M94.6878588,0.707863636 C97.2806922,0.707863636 99.876751,0.787863636 102.464976,0.681954545 C104.486898,0.599681818 105.423212,1.1515 105.449937,3.38922727 C105.479427,5.75968182 104.490124,6.2615 102.346094,6.20831818 C97.5963294,6.09059091 92.8405745,6.15922727 88.0875843,6.17513636 C82.2651137,6.19513636 78.2249569,9.85831818 78.2249569,15.0896818 C78.2254176,20.2987727 82.2734078,23.9674091 88.1101627,23.9992273 C93.1221137,24.0260455 98.1345255,24.0437727 103.146476,23.9851364 C104.873035,23.9646818 105.486339,24.7369545 105.38082,26.3160455 C105.289124,27.6937727 105.819947,29.5315 103.518329,29.5192273 C97.3037314,29.4865 91.0495059,29.7369545 84.8851333,29.1374091 C77.4084471,28.4105909 72.5324275,22.1310455 72.6826431,14.4542273 C72.8204176,7.40240909 78.3203392,1.50195455 85.6237706,0.853772727 C88.6220941,0.587409091 91.6646529,0.809681818 94.6878588,0.809681818 L94.6878588,0.707863636 Z" id="Fill-12"></path>
                            <path d="M95.2629637,17.8591818 C92.6807284,17.8578182 90.0980324,17.8728182 87.5157971,17.8528182 C85.6975422,17.8387273 84.5119441,17.0000909 84.4852186,15.1269091 C84.4589539,13.2664545 85.5731304,12.3332727 87.4190324,12.3255455 C92.6696696,12.3032727 97.9212284,12.3496364 103.171405,12.3005455 C105.345385,12.2800909 105.370268,13.6250909 105.402983,15.1900909 C105.438464,16.8864545 105.096562,17.9796364 103.009209,17.8873636 C100.431581,17.7741818 97.845199,17.8605455 95.2629637,17.8591818" id="Fill-14"></path>
                        </g>
                    </g>
                </g>
            </g>
        </g>
    </g>
</svg>

<svg height="30" viewBox="0 0 141 30" width="141" xmlns="http://www.w3.org/2000/svg"><g fill="#282138" fill-rule="evenodd"><path d="m140.755923 29.6363182c-5.051579.9381818-8.432353-1.4381818-11.222402-5.2881818-1.293883-1.7854546-2.970216-3.3013637-4.694471-5.1804546-2.321431 2.5177273-4.826716 4.7518182-6.721 7.41-2.436167 3.4172727-5.589314 3.2440909-9.914696 2.6909091 4.539186-5.0031818 8.676569-9.5631818 12.868323-14.1840909-4.179313-4.6063636-8.287205-9.13409091-12.771558-14.07590909 3.981637-.40954546 7.138009-1.09045455 9.604127 2.32681818 1.931608 2.67590909 4.428137 4.95636364 6.892412 7.65181821 2.415892-2.61000003 4.856667-4.98000003 6.966137-7.60909094 1.662971-2.07272727 3.51302-3.07181818 6.190177-2.7040909.906362.12454545 1.867098-.13545455 2.802951-.21954546v1.53590909c-4.061353 4.31636364-8.122706 8.63272731-12.335197 13.11000001 4.268706 4.4986364 8.301951 8.7495454 12.335197 13z"/><path d="m42.0207647 24.0046364c3.8908628 0 7.584049.0054545 11.2772353-.0040909.7745784-.0022728 1.5597549.0090909 2.3237353-.1009091 4.4313627-.64 7.7287353-4.215 7.8766471-8.4940909.1502156-4.3313637-2.7822157-8.41681823-7.2522844-8.88363641-4.6516176-.48545454-9.3958529-.10818182-14.2253333-.10818182zm-5.6681078-8.9522728c0-3.9177272.0944607-7.83909087-.0387059-11.75272724-.0700392-2.06954545.7612157-2.655 2.732451-2.62136363 5.2653823.08909091 10.5353725-.06 15.7998333.05363636 7.7374902.16727273 13.783902 5.96272727 14.2534412 13.49000001.4653921 7.4790909-4.8506765 14.2409091-12.5333334 14.9813636-6.0749804.5854546-12.2398137.2772728-18.3654804.325-1.6615882.0131818-1.8661764-1.1413636-1.8574215-2.4659091.0267255-4.0036363.0096764-8.0068181.0092157-12.01z"/><path d="m5.76772941 6.2585v17.7463636c1.05058824 0 1.90303922.0031819 2.75502941-.0004545 3.45496078-.0159091 6.92098038.135 10.36119608-.0918182 4.576049-.3018182 8.1162549-4.0177273 8.2895098-8.3386364.1893824-4.7318181-2.9720588-8.81454541-7.808451-9.23363632-4.4364313-.385-8.934147-.08181818-13.59728429-.08181818m-5.74367647 8.8822727c.00046079-4.0031818.05068628-8.0072727-.02303921-12.00909088-.03225491-1.76227273.69117647-2.45090909 2.4467647-2.43681818 5.43955882.04409091 10.88372547-.11636364 16.31775487.04954545 7.9291765.24136364 13.9852647 6.47318182 14.0400981 14.19590911.0571372 8.0431818-6.005402 14.2422727-14.5271471 14.5668182-5.2593921.2009091-10.53260783.0090909-15.79937254.0618181-1.75512745.0172728-2.5025196-.6577272-2.47487254-2.4190909.06312745-4.0018181.01981372-8.0059091.01981372-12.0090909"/><path d="m94.6878588.70786364c2.5928334 0 5.1888922.08 7.7771172-.02590909 2.021922-.08227273 2.958236.46954545 2.984961 2.70727272.02949 2.37045455-.959813 2.87227273-3.103843 2.81909091-4.7497646-.11772727-9.5055195-.04909091-14.2585097-.03318182-5.8224706.02-9.8626274 3.68318182-9.8626274 8.91454544.0004607 5.2090909 4.0484509 8.8777273 9.8852058 8.9095455 5.011951.0268182 10.0243628.0445454 15.0363133-.0140909 1.726559-.0204546 2.339863.7518181 2.234344 2.3309091-.091696 1.3777272.439127 3.2154545-1.862491 3.2031818-6.2145976-.0327273-12.4688231.2177272-18.6331957-.3818182-7.4766862-.7268182-12.3527058-7.0063636-12.2024902-14.6831818.1377745-7.05181821 5.6376961-12.95227275 12.9411275-13.60045457 2.9983235-.26636364 6.0408823-.04409091 9.0640882-.04409091z"/><path d="m95.2629637 17.8591818c-2.5822353-.0013636-5.1649313.0136364-7.7471666-.0063636-1.8182549-.0140909-3.003853-.8527273-3.0305785-2.7259091-.0262647-1.8604546 1.0879118-2.7936364 2.9338138-2.8013636 5.2506372-.0222728 10.502196.0240909 15.7523726-.025 2.17398-.0204546 2.198863 1.3245454 2.231578 2.8895454.035481 1.6963636-.306421 2.7895455-2.393774 2.6972727-2.577628-.1131818-5.16401-.0268181-7.7462453-.0281818"/></g></svg>
